flaticon/fitness/timer-1.svg

<svg xmlns="http://www.w3.org/2000/svg" width="32" height="32" viewBox="0 0 24 24">
    <path d="M 19.992188 7.601562 C 19.800781 7.238281 19.585938 6.890625 19.351562 6.5625 L 20.113281 5.800781 C 20.257812 5.652344 20.269531 5.441406 20.148438 5.28125 L 20.589844 4.839844 C 20.992188 4.441406 20.992188 3.839844 20.589844 3.441406 L 19.710938 2.558594 C 19.3125 2.160156 18.710938 2.160156 18.3125 2.558594 L 17.871094 3 L 17.832031 2.960938 C 17.75 2.878906 17.671875 2.839844 17.550781 2.839844 C 17.429688 2.839844 17.351562 2.878906 17.269531 2.960938 L 16.332031 3.898438 C 15.613281 3.511719 14.839844 3.214844 14.03125 3.03125 L 14.03125 2 C 14.03125 1.761719 13.871094 1.601562 13.632812 1.601562 L 13.632812 1 C 13.632812 0.441406 13.191406 0 12.671875 0 L 11.429688 0 C 10.871094 0 10.429688 0.441406 10.429688 1 L 10.429688 1.601562 C 10.191406 1.601562 10.03125 1.761719 10.03125 2 L 10.03125 3.019531 C 9.21875 3.199219 8.441406 3.492188 7.714844 3.882812 L 6.75 2.921875 C 6.671875 2.839844 6.589844 2.800781 6.472656 2.800781 C 6.351562 2.800781 6.269531 2.839844 6.191406 2.921875 L 5.792969 2.519531 C 5.390625 2.121094 4.792969 2.121094 4.390625 2.519531 L 3.511719 3.398438 C 3.113281 3.800781 3.113281 4.398438 3.511719 4.800781 L 3.910156 5.199219 C 3.832031 5.28125 3.792969 5.359375 3.792969 5.480469 C 3.792969 5.601562 3.832031 5.679688 3.910156 5.761719 L 4.675781 6.523438 C 4.425781 6.863281 4.195312 7.222656 3.992188 7.601562 C 2.070312 11.199219 2.550781 15.761719 5.269531 18.800781 L 8.269531 22.28125 C 9.230469 23.359375 10.589844 24 12.03125 24 C 13.472656 24 14.832031 23.398438 15.710938 22.320312 L 18.710938 18.839844 C 21.429688 15.761719 21.953125 11.238281 19.992188 7.601562 Z M 18.792969 3.039062 C 18.871094 2.960938 18.992188 2.960938 19.070312 3.039062 L 19.953125 3.921875 C 20.03125 4 20.03125 4.121094 19.953125 4.199219 L 19.511719 4.640625 L 18.390625 3.519531 Z M 17.550781 3.839844 L 19.230469 5.519531 L 18.835938 5.914062 C 18.757812 5.824219 18.679688 5.734375 18.597656 5.644531 C 18.132812 5.128906 17.609375 4.695312 17.03125 4.320312 Z M 11.230469 1 C 11.230469 0.878906 11.3125 0.800781 11.390625 0.800781 L 12.632812 0.800781 C 12.75 0.800781 12.832031 0.878906 12.832031 1 L 12.832031 1.601562 L 11.230469 1.601562 Z M 10.832031 2.398438 L 13.230469 2.398438 L 13.230469 2.878906 C 12.515625 2.773438 11.800781 2.761719 11.085938 2.847656 C 11 2.855469 10.917969 2.863281 10.832031 2.875 Z M 4.070312 3.960938 L 4.953125 3.078125 C 4.992188 3.039062 5.03125 3.039062 5.070312 3.039062 C 5.113281 3.039062 5.152344 3.039062 5.191406 3.078125 L 5.613281 3.5 L 4.472656 4.640625 L 4.070312 4.238281 C 3.992188 4.160156 3.992188 4.039062 4.070312 3.960938 Z M 4.792969 5.519531 L 4.828125 5.480469 C 4.828125 5.480469 4.832031 5.480469 4.832031 5.480469 L 6.492188 3.820312 L 6.988281 4.316406 C 6.320312 4.761719 5.710938 5.292969 5.175781 5.902344 Z M 18.191406 18.320312 L 15.191406 21.800781 C 14.390625 22.71875 13.230469 23.238281 12.03125 23.238281 C 10.792969 23.238281 9.671875 22.71875 8.871094 21.800781 L 5.871094 18.320312 C 3.390625 15.441406 2.910156 11.28125 4.710938 7.960938 C 5.882812 5.777344 7.960938 4.257812 10.355469 3.769531 C 10.40625 3.777344 10.457031 3.777344 10.511719 3.761719 C 11.511719 3.558594 12.511719 3.558594 13.550781 3.761719 C 13.589844 3.761719 13.589844 3.761719 13.632812 3.761719 C 13.632812 3.761719 13.636719 3.757812 13.640625 3.757812 C 14.753906 3.980469 15.808594 4.429688 16.738281 5.070312 C 16.742188 5.074219 16.746094 5.078125 16.75 5.082031 C 16.804688 5.117188 16.855469 5.152344 16.90625 5.191406 C 17.503906 5.628906 18.050781 6.144531 18.511719 6.71875 C 18.519531 6.726562 18.523438 6.734375 18.53125 6.738281 C 18.835938 7.117188 19.113281 7.527344 19.351562 7.960938 C 21.152344 11.320312 20.671875 15.480469 18.191406 18.320312 Z M 18.191406 18.320312"/>
    <path d="M14.75 6.761719L9.351562 6.761719C7.953125 6.761719 6.832031 7.878906 6.832031 9.28125L6.832031 11.480469C6.832031 12.878906 7.953125 14 9.351562 14L14.710938 14C16.113281 14 17.230469 12.878906 17.269531 11.480469L17.269531 9.28125C17.269531 7.878906 16.152344 6.761719 14.75 6.761719zM16.472656 11.519531C16.472656 12.480469 15.710938 13.238281 14.75 13.238281L9.351562 13.238281C8.390625 13.238281 7.632812 12.480469 7.632812 11.519531L7.632812 9.320312C7.632812 8.359375 8.390625 7.601562 9.351562 7.601562L14.75 7.601562C15.710938 7.601562 16.472656 8.359375 16.472656 9.320312zM12.03125 18C10.910156 18 10.03125 18.878906 10.03125 20 10.03125 21.121094 10.910156 22 12.03125 22 13.113281 22 14.03125 21.121094 14.03125 20 14.03125 18.878906 13.152344 18 12.03125 18zM12.03125 21.199219C11.351562 21.199219 10.832031 20.679688 10.832031 20 10.832031 19.320312 11.351562 18.800781 12.03125 18.800781 12.671875 18.800781 13.230469 19.320312 13.230469 20 13.230469 20.679688 12.710938 21.199219 12.03125 21.199219zM12.03125 21.199219"/>
    <path d="M9.113281 10.28125L10.3125 9.078125C10.472656 8.921875 10.472656 8.679688 10.3125 8.519531 10.152344 8.359375 9.910156 8.359375 9.75 8.519531L8.550781 9.71875C8.390625 9.878906 8.390625 10.121094 8.550781 10.28125 8.632812 10.359375 8.710938 10.398438 8.832031 10.398438 8.910156 10.398438 9.03125 10.359375 9.113281 10.28125zM14.953125 10.519531L13.75 11.71875C13.589844 11.878906 13.589844 12.121094 13.75 12.28125 13.832031 12.359375 13.910156 12.398438 14.03125 12.398438 14.113281 12.398438 14.230469 12.359375 14.3125 12.28125L15.511719 11.078125C15.671875 10.921875 15.671875 10.679688 15.511719 10.519531 15.351562 10.359375 15.113281 10.359375 14.953125 10.519531zM12.710938 8.519531C12.550781 8.359375 12.3125 8.359375 12.152344 8.519531L8.953125 11.71875C8.792969 11.878906 8.792969 12.121094 8.953125 12.28125 9.03125 12.359375 9.113281 12.398438 9.230469 12.398438 9.3125 12.398438 9.429688 12.359375 9.511719 12.28125L12.710938 9.078125C12.871094 8.921875 12.871094 8.679688 12.710938 8.519531zM15.113281 8.519531C14.953125 8.359375 14.710938 8.359375 14.550781 8.519531L11.351562 11.71875C11.191406 11.878906 11.191406 12.121094 11.351562 12.28125 11.429688 12.359375 11.511719 12.398438 11.632812 12.398438 11.710938 12.398438 11.832031 12.359375 11.910156 12.28125L15.113281 9.078125C15.269531 8.921875 15.269531 8.679688 15.113281 8.519531zM15.113281 8.519531"/>
</svg>

<svg xmlns="http://www.w3.org/2000/svg" width="32" height="32" viewBox="0 0 24 24">
    <path d="M19.992 7.602a9.036 9.036 0 0 0-.64-1.04l.761-.761a.39.39 0 0 0 .035-.52l.442-.441a.961.961 0 0 0 0-1.399l-.88-.882a.967.967 0 0 0-1.398 0l-.44.441-.04-.04a.361.361 0 0 0-.281-.12c-.121 0-.2.039-.281.12l-.938.938a9.129 9.129 0 0 0-2.3-.867V2c0-.238-.16-.398-.4-.398V1c0-.559-.44-1-.96-1H11.43c-.559 0-1 .441-1 1v.602c-.239 0-.399.16-.399.398v1.02a8.99 8.99 0 0 0-2.316.863l-.965-.961a.353.353 0 0 0-.277-.121.356.356 0 0 0-.282.12l-.398-.401a.972.972 0 0 0-1.402 0l-.88.878a.972.972 0 0 0 0 1.403l.4.398a.371.371 0 0 0-.118.281c0 .122.039.2.117.282l.766.761c-.25.34-.48.7-.684 1.079C2.07 11.199 2.551 15.762 5.27 18.8l3 3.48C9.23 23.36 10.59 24 12.03 24c1.442 0 2.801-.602 3.68-1.68l3-3.48c2.719-3.078 3.242-7.602 1.281-11.238zm-1.199-4.563a.193.193 0 0 1 .277 0l.883.883c.078.078.078.2 0 .277l-.441.442L18.39 3.52zm-1.242.8l1.68 1.68-.395.395c-.078-.09-.156-.18-.238-.27A7.802 7.802 0 0 0 17.03 4.32zM11.23 1c0-.121.082-.2.16-.2h1.242c.117 0 .199.079.199.2v.602H11.23zm-.399 1.398h2.398v.48a8.048 8.048 0 0 0-2.144-.03 5.598 5.598 0 0 0-.254.027zM4.07 3.961l.883-.883c.04-.039.078-.039.117-.039.043 0 .082 0 .121.04l.422.421-1.14 1.14-.403-.402a.193.193 0 0 1 0-.277zm.723 1.559l.035-.04h.004l1.66-1.66.496.496a9.206 9.206 0 0 0-1.812 1.586zm13.398 12.8l-3 3.48a4.203 4.203 0 0 1-3.16 1.438c-1.238 0-2.36-.52-3.16-1.437l-3-3.48c-2.48-2.88-2.96-7.04-1.16-10.36a8.275 8.275 0 0 1 5.644-4.191c.051.007.102.007.157-.008 1-.203 2-.203 3.039 0h.082s.004-.004.008-.004a8.35 8.35 0 0 1 3.097 1.312l.012.012a8.504 8.504 0 0 1 1.762 1.637c.008.008.011.015.02.02.304.378.581.788.82 1.222 1.8 3.36 1.32 7.52-1.16 10.36zm0 0"/>
    <path d="M14.75 6.762H9.352a2.508 2.508 0 0 0-2.52 2.52v2.198A2.51 2.51 0 0 0 9.352 14h5.359c1.402 0 2.52-1.121 2.559-2.52V9.281a2.506 2.506 0 0 0-2.52-2.52zm1.723 4.758c0 .96-.762 1.718-1.723 1.718H9.352c-.961 0-1.72-.758-1.72-1.718v-2.2c0-.96.759-1.718 1.72-1.718h5.398c.96 0 1.723.757 1.723 1.718zm0 0M12.031 18c-1.12 0-2 .879-2 2s.88 2 2 2c1.082 0 2-.879 2-2s-.879-2-2-2zm0 3.2c-.68 0-1.199-.52-1.199-1.2 0-.68.52-1.2 1.2-1.2.64 0 1.198.52 1.198 1.2 0 .68-.52 1.2-1.199 1.2zm0 0"/>
    <path d="M9.113 10.281l1.2-1.203a.385.385 0 0 0 0-.558.39.39 0 0 0-.563 0l-1.2 1.199a.39.39 0 0 0 0 .562c.083.078.16.117.282.117.078 0 .2-.039.281-.117zm0 0M14.953 10.52l-1.203 1.199a.39.39 0 0 0 0 .562c.082.078.16.117.281.117.082 0 .2-.039.281-.117l1.2-1.203a.385.385 0 0 0 0-.558.385.385 0 0 0-.559 0zm0 0M12.71 8.52a.385.385 0 0 0-.558 0l-3.199 3.199a.39.39 0 0 0 0 .562c.078.078.16.117.277.117.082 0 .2-.039.282-.117l3.199-3.203a.385.385 0 0 0 0-.558zm0 0M15.113 8.52a.39.39 0 0 0-.562 0l-3.2 3.199a.39.39 0 0 0 0 .562c.079.078.16.117.282.117.078 0 .199-.039.277-.117l3.203-3.203a.391.391 0 0 0 0-.558zm0 0"/>
</svg>
